X:1
T:Gopsal, 66.66.88
T:Gopsal, 66.66.88
T:George Frederick Handel, ca. 1750
T:Public Domain Courtesy of the Cyber Hymnal™
C:George Frederick Handel, ca. 1750
Z:Public Domain
Z:Courtesy of the Cyber Hymnal™
%%score ( 1 2 ) ( 3 4 )
L:1/8
Q:1/4=110
M:4/4
K:C
V:1 treble 
V:2 treble 
V:3 bass 
V:4 bass 
V:1
 [EG]2 | [FA]2 [DG]2 [CE]3 [C^F] | [DG]6 C2 | [B,F]2 (ED) D3 C | C6 [EG]2 | %5
 [DG]2 [CE]2 [CA]2 [FB]2 | [Ec]6 [Ge]2 | [Dd]2 (GA) ^F3 (DG) | [B,G]6 G2 | %9
 [Ec]2 [CE]2 [CA]2 [EG]2 | [DF]3 [DF] [CE]4- | [CE]2 [CG]2 [CA]3 [Cc] | D2 (EF) D3 x | [G,C]6 |] %14
V:2
 x2 | x8 | x6 C2 | x2 C2 C2 B, x | C6 x2 | x8 | x8 | x2 D2 D2 x3 | x6 G2 | x8 | x8 | x8 | %12
 C2 C2 C2 (B,C) | x6 |] %14
V:3
 [C,C]2 | [F,,C]2 [G,,B,]2 [A,,A,]3 [A,,A,] | B,6 [E,G,]2 | [D,F,]2 [C,G,]2 G,2 [G,,G,]2 | %4
 [C,E,]6 [C,C]2 | [B,,G,]2 [C,G,]2 [F,A,]2 [D,D]2 | [A,C]6 [E,C]2 | [^F,A,]2 (B,C) D,2 D,2 x | %8
 [G,,G,]6 [G,,B,]2 | A,2 [C,G,]2 [F,A,]2 [^C,A,]2 | [D,A,]2 [D,A,]2 [A,,A,]4- | %11
 [A,,A,]2 [E,G,]2 [F,C]3 [E,G,] | [F,A,]2 [D,A,]2 G,2 [G,,G,]2 | [C,E,]6 |] %14
V:4
 x2 | x8 | (G,,2 G,2 F,2) x2 | x4 G,2 x2 | x8 | x8 | x8 | x2 G,2 D,2 D,2 x | x8 | (A,,B,,) x6 | %10
 x8 | x8 | x4 G,2 x2 | x6 |] %14

